X:194
%%pagewidth 9in
%%vocalfont Baskerville10Pro 14
%%pos vol above
T:Gather your rosebuds while you may
M:C
L:1/8
K:G
%%score 1 2
V:1 clef-treble
V:2 clef-bass octave=-1
[V:1]d2dd d3c & D8-|B2 (A>G) [B,G]3B & D2C2x4|B3A ([EG]A)([GB]c) & D4x4|[FAd]2[FAd]6|
w:Gath-er ye rose-buds while ye* may, Old Time is still* a* fly-ing;
[V:2][GB]4[FA]4|G2[DF]2[G,G]4|G4E4|D2D6|
[V:1]A2 AB c3d & =F4E4-|e2dc B3[Fc] &E^FGA B2x2|[Gd]2[E(c]B)[FA]3G|G2G6||
w:And this same flow'r that smiles to-*day, To-mor-row* will be dy-ing.
[V:2]D4A,3B,|CDEF G3A|B2c2d2[Dc]2|[GB]2[GB]6||

